X:1
T:Erfyniad, 10.10.10.10
T:Erfyniad, 10.10.10.10
T:Welsh hymn melody, harmony by David Evans, 1920
T:Public Domain Courtesy of the Cyber Hymnal™
C:Welsh hymn melody, harmony by David Evans, 1920
Z:Public Domain
Z:Courtesy of the Cyber Hymnal™
%%score ( 1 2 ) ( 3 4 )
L:1/8
M:4/4
K:Bb
V:1 treble 
V:2 treble 
V:3 bass 
V:4 bass 
V:1
 [DG]4 [EB]2 [Ec]2 | d4 z2 z2 x4 | [GB]2 [EA]2 [DG]2 [D^F]2 | [DG]4 [DA]4 | [DB]2 G2 [^FA]4 | %5
 [Gd]4 [Gc]2 [Gc]2 | [GB]4 [^FA]4 | G8 | [DA]4 [DB]2 [Fc]2 | [Fd]4 [Fc]4 | %10
 [FB]2 [EG]2 [Gc]2 [GB]2 | [^FA]4 D4 | [DG]2 ^F2 [B,G]4 | [Ec]4 [DB]2 [EA]2 | G4 z2 x6 | [B,G]8 |] %16
V:2
 x8 | D2 (G4 c4 ^F2) | x8 | x8 | x2 G2 x4 | x8 | x8 | G8 | x8 | x8 | x8 | x4 D4 | x2 DC x4 | x8 | %14
 D6 (^F4 C2) | x8 |] %16
V:3
 [G,B,]4 [E,G,]2 (G,A,) | [B,,B,]4 [A,,C]4 x4 | [B,,D]2 [B,,C]2 [D,B,]2 [D,A,]2 | %3
 [G,,B,]4 [D,^F,]4 | G,2 [E,B,]2 [D,D]4 | [B,,D]4 [C,E]2 [A,,E]2 | D4 (D2 C2) | [G,,B,]8 | %8
 [D,^F,]4 G,2 [=F,A,]2 | B,4 A,4 | [D,B,]2 [E,B,]2 [C,E]2 [G,,D]2 | [D,D]4 ([B,D]3 [A,C]) | %12
 [G,B,]2 [D,A,]2 [E,G,]4 | (G,3 ^F,) [B,,G,]2 [C,C]2 | [D,B,]4 [D,A,]4 x4 | [G,,G,]8 |] %16
V:4
 x6 C,2 | x12 | x8 | x8 | G,2 x6 | x8 | (B,,3 C,) D,4 | x8 | x4 G,2 x2 | B,4 (F,3 E,) | x8 | x8 | %12
 x8 | A,,4 x4 | x12 | x8 |] %16

